build/logo/SkyllaOutline.svg

<svg xmlns="http://www.w3.org/2000/svg" fill="none" viewBox="0 0 24 24" focusable="false"><path d="M0 0H24V24H0z"/><path fill="#74767B" fill-rule="evenodd" d="M20.147 12.0101L20.147 15.9778C20.1475 16.4278 20.1367 16.89 20.1138 17.141C20.0713 17.6016 19.981 17.9984 19.8433 18.3312C19.6855 18.7125 19.4634 19.0233 19.1768 19.263C19.1191 19.3116 19.0581 19.3573 18.9951 19.3999C18.5762 19.6713 18.0254 19.8312 17.416 19.8312C16.8063 19.8312 16.292 19.6955 15.873 19.4241C15.8101 19.3814 15.7124 19.3113 15.6548 19.2628C15.5723 19.1939 15.4951 19.1191 15.4233 19.0385C15.2822 19.2766 15.1143 19.4885 14.9189 19.6739C14.7212 19.8619 14.4951 20.0229 14.2417 20.1567C13.6431 20.4728 12.896 20.6309 12.0005 20.6309C11.1045 20.6309 10.3574 20.4727 9.7583 20.1565C9.50488 20.0227 9.2793 19.8616 9.08154 19.6739C8.88656 19.4888 8.71859 19.2773 8.57764 19.0397C8.50635 19.1198 8.42985 19.1942 8.34814 19.2628C8.2902 19.3112 8.22917 19.3573 8.16602 19.3999C7.74707 19.6713 7.19629 19.8312 6.58691 19.8312C5.97721 19.8312 5.46289 19.6955 5.04395 19.4241C4.98096 19.3814 4.8833 19.3113 4.8252 19.2628C4.53906 19.023 4.31641 18.7123 4.15869 18.3305C4.021 17.9975 3.93083 17.6007 3.88818 17.1401C3.86523 16.8888 3.85352 16.5384 3.854 16.0882L3.854 12.0101C3.854 11.4276 3.91846 10.8587 4.04736 10.3036C4.15316 9.84844 4.30225 9.4025 4.49463 8.96578C4.68896 8.52453 4.92106 8.10703 5.19092 7.71328C5.49333 7.27234 5.8431 6.86125 6.24023 6.48C6.63704 6.09891 7.06527 5.7632 7.5249 5.47289C7.93473 5.21383 8.36947 4.99094 8.8291 4.80422C9.28418 4.61953 9.74886 4.47648 10.2231 4.37508C10.8013 4.25133 11.3937 4.18945 12.0005 4.18945C12.6073 4.18945 13.1997 4.25133 13.7778 4.37508C14.2518 4.47648 14.7168 4.61953 15.1719 4.80422C15.6315 4.99094 16.0664 5.21383 16.4766 5.47289C16.9359 5.7632 17.3641 6.09891 17.7612 6.48C18.158 6.86125 18.5076 7.27234 18.8101 7.71328C19.0801 8.10703 19.312 8.52445 19.5068 8.96578C19.6992 9.40242 19.8481 9.84844 19.9536 10.3036C20.0825 10.8586 20.147 11.4274 20.147 12.0101ZM18.8472 12.0101L18.8472 16.0083C18.8477 16.421 18.8384 16.8169 18.8188 17.0309C18.7876 17.3705 18.7261 17.6503 18.6353 17.8706C18.5405 18.0987 18.4111 18.2684 18.2466 18.3795C18.0459 18.5152 17.769 18.5831 17.416 18.5831C17.0628 18.5831 16.7856 18.5152 16.5845 18.3792C16.4199 18.2681 16.2905 18.0982 16.1963 17.8699C16.105 17.6496 16.0439 17.3698 16.0122 17.0297C15.9927 16.8157 15.9829 16.4215 15.9834 16.0085C15.9834 15.6591 15.6973 15.3846 15.3335 15.3846C14.9697 15.3853 14.6816 15.6595 14.6816 16.0085C14.6816 16.0312 14.6816 16.0655 14.6816 16.1109C14.682 16.3652 14.6802 16.5591 14.6763 16.6927C14.6694 16.912 14.6562 17.1094 14.6353 17.2847C14.585 17.7103 14.4858 18.0623 14.3384 18.341C14.2437 18.5194 14.1255 18.6741 13.9834 18.8046C13.875 18.9049 13.752 18.9909 13.6152 19.0631C13.2116 19.2762 12.6733 19.3828 12.0005 19.3828C11.3273 19.3828 10.7887 19.2762 10.3848 19.0629C10.2485 18.9909 10.1255 18.9047 10.0171 18.8046C9.87451 18.6738 9.75635 18.5191 9.66162 18.3405C9.51416 18.0616 9.4152 17.7093 9.36475 17.2835C9.34424 17.1082 9.33057 16.9109 9.32373 16.6915C9.32031 16.571 9.31836 16.4013 9.31836 16.1827C9.31885 16.1252 9.31885 16.0671 9.31885 16.0085C9.31885 15.6591 9.03271 15.3846 8.66895 15.3846C8.30566 15.3855 8.01855 15.6598 8.01855 16.0085C8.01855 16.0303 8.01855 16.0634 8.01855 16.1081C8.01807 16.158 8.01807 16.2059 8.01855 16.2516C8.0166 16.5858 8.00684 16.8455 7.98975 17.0306C7.9585 17.3705 7.89697 17.6503 7.80615 17.8704C7.71143 18.0987 7.58203 18.2681 7.41748 18.3795C7.21663 18.5152 6.93978 18.5831 6.58691 18.5831C6.23372 18.5831 5.95654 18.5152 5.75537 18.3792C5.59082 18.2681 5.46143 18.0982 5.36719 17.8699C5.27604 17.6498 5.21468 17.3697 5.18311 17.0297C5.16357 16.8157 5.15381 16.4215 5.1543 16.0085L5.15381 12.0101C5.15381 11.5118 5.2098 11.0257 5.32178 10.5518C5.41032 10.1776 5.53369 9.81094 5.69189 9.45188C5.85335 9.08531 6.0459 8.73828 6.26953 8.41078C6.52539 8.03578 6.82194 7.68641 7.15918 7.36266C7.49675 7.03875 7.86084 6.75391 8.25146 6.50813C8.59261 6.29359 8.9541 6.10875 9.33594 5.95359C9.70963 5.80188 10.0915 5.68359 10.4814 5.59875C10.9753 5.49141 11.4816 5.4375 12.0005 5.4375C12.5197 5.4375 13.026 5.49125 13.5195 5.59875C13.9092 5.68359 14.2915 5.80195 14.6655 5.95383C15.0474 6.10883 15.4089 6.29367 15.75 6.50836C16.1406 6.75398 16.5044 7.03875 16.8418 7.36266C17.1792 7.68633 17.4756 8.03578 17.7314 8.41078C17.9551 8.7382 18.1479 9.08531 18.3091 9.45188C18.4673 9.81094 18.5908 10.1775 18.6792 10.5518C18.7912 11.0257 18.8472 11.5118 18.8472 12.0101ZM9.98926 7.56914C8.54492 7.56914 7.37402 8.6932 7.37402 10.0798C7.37402 11.4663 8.54492 12.5902 9.98926 12.5902C11.4336 12.5902 12.6045 11.4663 12.6045 10.0798C12.6045 8.6932 11.4336 7.56914 9.98926 7.56914ZM9.98926 8.81719C9.26318 8.81719 8.67432 9.3825 8.67432 10.0798C8.67432 10.777 9.26318 11.3423 9.98926 11.3423C10.7158 11.3423 11.3047 10.777 11.3047 10.0798C11.3047 9.3825 10.7158 8.81719 9.98926 8.81719Z"/></svg>

<svg xmlns="http://www.w3.org/2000/svg" fill="none" viewBox="0 0 24 24" focusable="false"><path fill="#74767B" fill-rule="evenodd" d="M20.14 12.01v3.96c0 .45-.01.92-.03 1.17-.04.46-.13.85-.27 1.19-.16.38-.38.69-.67.93-.06.05-.12.09-.18.13-.42.28-.97.44-1.58.44s-1.12-.14-1.54-.41a3 3 0 0 1-.22-.16c-.08-.07-.16-.15-.23-.23-.14.24-.31.45-.51.64-.19.19-.42.35-.67.48-.6.32-1.35.48-2.24.48q-1.35 0-2.25-.48a2.7 2.7 0 0 1-.67-.48c-.2-.19-.37-.4-.51-.64-.07.08-.15.16-.23.23-.05.05-.12.09-.18.13-.42.28-.97.44-1.58.44s-1.12-.14-1.54-.41a3 3 0 0 1-.22-.16c-.29-.24-.51-.55-.67-.93-.13-.34-.22-.73-.27-1.19-.02-.26-.03-.61-.03-1.06v-4.07c0-.59.06-1.16.19-1.71.11-.46.26-.9.45-1.34s.43-.86.7-1.25q.45-.66 1.05-1.23c.39-.39.82-.72 1.28-1.01.41-.26.84-.48 1.3-.67s.92-.33 1.4-.43c.58-.12 1.17-.19 1.78-.19.6 0 1.19.07 1.77.19.48.1.94.24 1.4.43s.89.41 1.3.67c.46.29.89.62 1.29 1.01q.585.57 1.05 1.23c.27.39.5.81.69 1.25s.34.88.45 1.34c.13.55.19 1.12.19 1.71m-1.3 0V16c0 .42-.01.81-.03 1.03q-.045.51-.18.84c-.09.22-.22.39-.39.5-.2.14-.48.21-.83.21s-.63-.07-.83-.21c-.17-.11-.29-.28-.39-.51q-.135-.33-.18-.84c-.02-.21-.03-.6-.03-1.02 0-.35-.29-.62-.65-.62-.37 0-.65.27-.65.62v.11c0 .25 0 .44-.01.58-.01.22-.02.41-.04.59-.05.43-.15.78-.3 1.06-.09.17-.21.33-.35.46-.11.1-.23.19-.37.26-.4.21-.94.32-1.61.32-.68 0-1.22-.11-1.62-.32-.14-.07-.26-.16-.37-.26-.14-.13-.26-.29-.35-.46-.15-.28-.25-.64-.3-1.06a9 9 0 0 1-.04-.59c0-.12-.01-.29-.01-.51V16c0-.35-.28-.62-.65-.62-.36 0-.65.27-.65.62v.25q0 .495-.03.78-.045.51-.18.84c-.09.22-.22.39-.39.5-.2.14-.48.21-.83.21s-.63-.07-.83-.21q-.24-.165-.39-.51-.135-.33-.18-.84c-.02-.21-.03-.6-.03-1.02v-3.99c0-.5.05-.99.17-1.46.09-.38.21-.74.37-1.1.16-.37.35-.72.57-1.04.26-.38.56-.73.89-1.05.34-.33.71-.61 1.1-.86.34-.21.7-.4 1.08-.55.37-.15.76-.27 1.15-.36.49-.1 1-.16 1.52-.16.51 0 1.02.06 1.51.16a7.42 7.42 0 0 1 2.24.91c.39.25.75.53 1.09.86.33.32.63.67.89 1.05.22.32.41.67.57 1.04.16.36.29.72.37 1.1.12.47.17.96.17 1.46M9.98 7.56c-1.44 0-2.61 1.13-2.61 2.51 0 1.39 1.17 2.52 2.61 2.52 1.45 0 2.62-1.13 2.62-2.52 0-1.38-1.17-2.51-2.62-2.51m0 1.25c-.72 0-1.31.57-1.31 1.26 0 .7.59 1.27 1.31 1.27.73 0 1.32-.57 1.32-1.27 0-.69-.59-1.26-1.32-1.26"/></svg>
